femmes/public/img/illustrations/slide1/blue-rugby.svg

<?xml version="1.0" encoding="UTF-8" standalone="no"?>
<svg
   width="168"
   height="169"
   viewBox="0 0 168 169"
   fill="none"
   version="1.1"
   id="svg938"
   sodipodi:docname="blue-rugby.svg"
   inkscape:version="1.1.2 (0a00cf5339, 2022-02-04)"
   xmlns:inkscape="http://www.inkscape.org/namespaces/inkscape"
   xmlns:sodipodi="http://sodipodi.sourceforge.net/DTD/sodipodi-0.dtd"
   xmlns="http://www.w3.org/2000/svg"
   xmlns:svg="http://www.w3.org/2000/svg">
  <sodipodi:namedview
     id="namedview940"
     pagecolor="#ffffff"
     bordercolor="#666666"
     borderopacity="1.0"
     inkscape:pageshadow="2"
     inkscape:pageopacity="0.0"
     inkscape:pagecheckerboard="0"
     showgrid="false"
     width="283px"
     inkscape:zoom="1.0742584"
     inkscape:cx="2.3271869"
     inkscape:cy="149.87083"
     inkscape:window-width="1916"
     inkscape:window-height="1053"
     inkscape:window-x="0"
     inkscape:window-y="0"
     inkscape:window-maximized="1"
     inkscape:current-layer="svg938" />
  <g
     clip-path="url(#clip0_378_221)"
     id="g929"
     transform="translate(-56,-40)">
    <path
       d="M 221.521,158.586 C 197.991,100.541 138.451,73.5473 79.5249,93.9439 71.2881,96.7947 64.2948,103.622 60.6444,112.405 l -0.1536,0.369 c -3.3391,8.034 -3.5775,16.905 -0.5604,24.299 23.6691,57.999 83.3396,84.83 142.2646,64.225 8.366,-2.925 15.417,-9.973 18.98,-18.957 3.13,-7.895 3.276,-16.526 0.345,-23.754 z"
       fill="#5bc5f2"
       id="path920" />
    <mask
       id="mask0_378_221"
       maskUnits="userSpaceOnUse"
       x="57"
       y="87"
       width="167"
       height="122">
      <path
         d="M 221.521,158.586 C 197.991,100.541 138.451,73.5473 79.5249,93.9439 71.2881,96.7947 64.2948,103.622 60.6444,112.405 l -0.1536,0.369 c -3.3391,8.034 -3.5775,16.905 -0.5604,24.299 23.6691,57.999 83.3396,84.83 142.2646,64.225 8.366,-2.925 15.417,-9.973 18.98,-18.957 3.13,-7.895 3.276,-16.526 0.345,-23.754 z"
         fill="#ffffff"
         id="path922" />
    </mask>
    <g
       mask="url(#mask0_378_221)"
       id="g927">
      <path
         d="m 125.66,182.158 c 28.578,12.75 60.956,16.952 90.277,9.559 3.875,-0.977 6.798,-3.292 8.227,-6.517 1.432,-3.23 1.183,-6.957 -0.7,-10.494 l -0.624,-1.17 C 194.615,120.528 124.219,89.1217 65.9166,103.528 l -0.4487,0.11 c -3.9004,0.964 -6.8441,3.276 -8.2874,6.512 -1.4434,3.235 -1.1983,6.97 0.6899,10.516 l 0.6235,1.172 c 14.1356,26.547 38.7746,47.654 67.1651,60.319 z m 96.657,-6.856 -1.146,0.595 c 1.503,2.824 1.722,5.753 0.617,8.249 -1.105,2.491 -3.415,4.292 -6.507,5.072 -57.354,14.461 -126.6584,-16.3 -154.4923,-68.571 l -0.6235,-1.172 c -1.5072,-2.83 -1.723,-5.766 -0.6079,-8.266 1.1152,-2.499 3.4439,-4.3 6.5576,-5.068 l 0.4486,-0.111 C 123.774,91.8933 192.851,122.712 220.549,174.728 l 0.623,1.17 1.146,-0.596 z"
         fill="#000000"
         id="path925" />
    </g>
  </g>
  <path
     d="M 42.7072,20.966 C 60.262,12.1614 71.825,6.7393 91.919,2.8945 M 36.0321,36.1991 c 27.3909,-7.782 44.9969,-12.33 89.1549,-9.7453"
     stroke="#5bc5f2"
     stroke-width="3"
     id="path931" />
  <defs
     id="defs936">
    <clipPath
       id="clip0_378_221">
      <rect
         width="183.073"
         height="111.706"
         fill="#ffffff"
         transform="matrix(-0.913239,-0.407425,-0.407425,0.913239,247.018,133.974)"
         id="rect933"
         x="0"
         y="0" />
    </clipPath>
  </defs>
</svg>

<svg width="284" height="286" viewBox="0 0 284 286" fill="none" xmlns="http://www.w3.org/2000/svg">
<g clip-path="url(#clip0_378_221)">
<path d="M221.521 158.586C197.991 100.541 138.451 73.5473 79.5249 93.9439C71.2881 96.7947 64.2948 103.622 60.6444 112.405L60.4908 112.774C57.1517 120.808 56.9133 129.679 59.9304 137.073C83.5995 195.072 143.27 221.903 202.195 201.298C210.561 198.373 217.612 191.325 221.175 182.341C224.305 174.446 224.451 165.815 221.52 158.587L221.521 158.586Z" fill="#5BC5F2"/>
<mask id="mask0_378_221" style="mask-type:luminance" maskUnits="userSpaceOnUse" x="57" y="87" width="167" height="122">
<path d="M221.521 158.586C197.991 100.541 138.451 73.5473 79.5249 93.9439C71.2881 96.7947 64.2948 103.622 60.6444 112.405L60.4908 112.774C57.1517 120.808 56.9133 129.679 59.9304 137.073C83.5995 195.072 143.27 221.903 202.195 201.298C210.561 198.373 217.612 191.325 221.175 182.341C224.305 174.446 224.451 165.815 221.52 158.587L221.521 158.586Z" fill="white"/>
</mask>
<g mask="url(#mask0_378_221)">
<path d="M125.66 182.158C154.238 194.908 186.616 199.11 215.937 191.717C219.812 190.74 222.735 188.425 224.164 185.2C225.596 181.97 225.347 178.243 223.464 174.706L222.84 173.536C194.615 120.528 124.219 89.1217 65.9166 103.528L65.4679 103.638C61.5675 104.602 58.6238 106.914 57.1805 110.15C55.7371 113.385 55.9822 117.12 57.8704 120.666L58.4939 121.838C72.6295 148.385 97.2685 169.492 125.659 182.157L125.66 182.158ZM222.317 175.302L221.171 175.897C222.674 178.721 222.893 181.65 221.788 184.146C220.683 186.637 218.373 188.438 215.281 189.218C157.927 203.679 88.6226 172.918 60.7887 120.647L60.1652 119.475C58.658 116.645 58.4422 113.709 59.5573 111.209C60.6725 108.71 63.0012 106.909 66.1149 106.141L66.5635 106.03C123.774 91.8933 192.851 122.712 220.549 174.728L221.172 175.898L222.318 175.302L222.317 175.302Z" fill="black"/>
</g>
</g>
<path d="M98.7072 60.966C116.262 52.1614 127.825 46.7393 147.919 42.8945M92.0321 76.1991C119.423 68.4171 137.029 63.8691 181.187 66.4538" stroke="#5BC5F2" stroke-width="3"/>
<defs>
<clipPath id="clip0_378_221">
<rect width="183.073" height="111.706" fill="white" transform="matrix(-0.913239 -0.407425 -0.407425 0.913239 247.018 133.974)"/>
</clipPath>
</defs>
</svg>
